X:43
T:Kas a barh
C:Loffet 6
M:C
L:1/8
K:G
G2 BA G2 d2|d2 ec dcBd|G2 BA G2 d2|\
d2 ec d4:|e2f2g2d2|
c2B2 A2A2|:GBBG A2A2|GBBG A4|\
d2 dc B2B2|AccB G4:|
